X:12854
T:Pastor (Arrg.)
R:Tonada
C:Tradicional
S:Msica Tradicional Asturiana, (C) Tello & Tito. Asturies, 2001.
S:http://pagina.de/MusTradAst <telloytito@asturies.org>
A:Asturies
G:Arrg.
Z:Nacho Fonseca
M:3/8
L:1/8
Q:3/8=80
K:C
E|"Am"A2 ^G|"Am"AcB|"Am"AGF|"Am"E2 E|"G"G2 ^F|"G"GBA|"C"G>F E-|"C"E z E|
|"A"G2 ^F|"A"GAG|"Dm"EFE|"Dm"D2 D|"Em"G2 ^F|"B7"GBA|"Em"^FGE|"B7"^F2 ^D|"E"E3-|"E"E z2|
